icons/desktop/16/svg/policy-16.svg

<svg width="16" height="16" viewBox="0 0 16 16" fill="none" xmlns="http://www.w3.org/2000/svg">
<g clip-path="url(#clip0_8069_32625)">
<path fill-rule="evenodd" clip-rule="evenodd" d="M8.24902 1.00781C7.94808 1.44573 7.77187 1.9659 7.75781 2.50879C6.70287 2.51879 5.64746 2.58187 4.60352 2.71387C3.97476 2.79305 3.50005 3.32919 3.5 3.95801V11.002H9.24805C10.213 11.002 10.998 11.787 10.998 12.752V13.4658C10.998 13.6808 11.087 13.8775 11.248 14.0195C11.4039 14.1563 11.5959 14.2201 11.8086 14.2002C11.8156 14.1982 11.8221 14.1982 11.8281 14.1982H11.8301C12.224 14.1482 12.499 13.8348 12.499 13.4668V8.82617H12.502C12.994 8.82617 13.4774 8.69336 13.8994 8.44336L13.9004 8.44238C13.9353 8.42239 13.967 8.39499 14.001 8.37402V13.4648C14.001 14.5868 13.1609 15.5387 12.0479 15.6797C12.0389 15.6817 12.0286 15.6836 12.0176 15.6846C10.3577 15.8935 8.67083 15.999 7.00098 15.999C5.33111 15.999 3.6432 15.8935 1.98633 15.6846C0.855383 15.5416 0.00105906 14.5792 0.000976562 13.4473V12.749C0.00101897 11.7841 0.786003 10.999 1.75098 10.999H2.00098V3.95703C2.00101 2.57407 3.03905 1.40059 4.41602 1.22559C5.68502 1.06559 6.96802 0.996813 8.24902 1.00781ZM1.75 12.5C1.61203 12.5 1.50006 12.612 1.5 12.75V13.4482C1.50007 13.8271 1.78895 14.1492 2.17285 14.1973C4.66085 14.5113 7.19003 14.5803 9.70703 14.4043C9.57203 14.1123 9.5 13.7919 9.5 13.4639V12.75C9.49994 12.6121 9.38796 12.5 9.25 12.5H1.75Z" fill="black"/>
<path d="M9.86621 7.5C10.1412 7.76096 10.4353 7.99027 10.7393 8.19824C10.7413 8.21612 10.75 8.23109 10.75 8.25C10.75 8.664 10.414 9 10 9H6C5.586 9 5.25 8.664 5.25 8.25C5.25 7.836 5.586 7.5 6 7.5H9.86621Z" fill="black"/>
<path fill-rule="evenodd" clip-rule="evenodd" d="M12.4932 -0.00195312C12.7929 -0.00191477 13.0927 0.0868886 13.3525 0.265625C13.5955 0.43259 13.868 0.602633 14.168 0.766602C14.485 0.940602 14.7901 1.08508 15.0771 1.20508C15.726 1.47513 16.1036 2.17708 15.9736 2.87402L15.7617 4.01562C15.6547 4.59162 15.4615 5.09379 15.1875 5.50879C14.6865 6.26777 14.0027 6.92719 13.2607 7.36719C13.0278 7.5061 12.7649 7.5752 12.502 7.5752C12.235 7.57519 11.9665 7.5043 11.7285 7.3623C10.9896 6.9233 10.3095 6.26464 9.8125 5.51172C9.53666 5.09381 9.34424 4.58851 9.23828 4.01172L9.02539 2.85352C8.89639 2.15552 9.27099 1.45162 9.91699 1.18262C10.1519 1.08463 10.3975 0.972742 10.6494 0.842773C10.9892 0.667849 11.3218 0.471626 11.6396 0.260742C11.8996 0.0867422 12.1962 0 12.4922 0L12.4932 -0.00195312ZM12.4932 1.24902C12.4372 1.24902 12.3839 1.26587 12.335 1.29883C11.977 1.53783 11.6027 1.7581 11.2207 1.9541C10.9478 2.09505 10.6704 2.22295 10.3965 2.33691C10.2957 2.37906 10.233 2.50615 10.2549 2.62598L10.4678 3.78613C10.5438 4.19811 10.6754 4.54821 10.8584 4.8252C11.2544 5.42407 11.7912 5.94412 12.3701 6.28906C12.4094 6.31201 12.4532 6.32415 12.498 6.3252L12.4932 1.24902Z" fill="black"/>
<path d="M8.08203 4.5C8.20903 5.053 8.40399 5.555 8.66699 6H6C5.586 6 5.25 5.664 5.25 5.25C5.25 4.836 5.586 4.5 6 4.5H8.08203Z" fill="black"/>
</g>
<defs>
<clipPath id="clip0_8069_32625">
<rect width="16" height="16" fill="white"/>
</clipPath>
</defs>
</svg>

<!-- This Source Code Form is subject to the terms of the Mozilla Public
   - License, v. 2.0. If a copy of the MPL was not distributed with this
   - file, You can obtain one at http://mozilla.org/MPL/2.0/. -->
<svg xmlns="http://www.w3.org/2000/svg" width="16" height="16" fill="context-fill" fill-opacity="context-fill-opacity" viewBox="0 0 16 16">
    <g clip-path="url(#clip0_8069_32625)">
        <path fill-rule="evenodd" d="M8.249 1.008a2.8 2.8 0 0 0-.491 1.5 27 27 0 0 0-3.154.206A1.26 1.26 0 0 0 3.5 3.958v7.044h5.748c.965 0 1.75.785 1.75 1.75v.714a.73.73 0 0 0 .25.554c.156.136.348.2.56.18q.011-.003.02-.002h.002a.743.743 0 0 0 .669-.731v-4.64h.003c.492 0 .975-.134 1.397-.384h.001c.035-.02.067-.048.101-.069v5.09a2.237 2.237 0 0 1-1.983 2.22 40.3 40.3 0 0 1-10.032 0 2.27 2.27 0 0 1-1.985-2.237v-.698c0-.965.785-1.75 1.75-1.75h.25V3.957a2.76 2.76 0 0 1 2.415-2.731 29 29 0 0 1 3.833-.218M1.75 12.5a.25.25 0 0 0-.25.25v.698c0 .38.289.701.673.75 2.488.313 5.017.382 7.534.206a2.2 2.2 0 0 1-.207-.94v-.714a.25.25 0 0 0-.25-.25z" clip-rule="evenodd" />
        <path d="M9.866 7.5c.275.261.57.49.873.698.002.018.011.033.011.052A.75.75 0 0 1 10 9H6a.75.75 0 0 1 0-1.5z" />
        <path fill-rule="evenodd" d="M12.493-.002c.3 0 .6.089.86.268a9.53 9.53 0 0 0 1.725.94c.648.27 1.026.971.896 1.668l-.212 1.142c-.107.576-.3 1.078-.575 1.493a6.1 6.1 0 0 1-1.926 1.858 1.5 1.5 0 0 1-.759.208 1.5 1.5 0 0 1-.774-.213 6.1 6.1 0 0 1-1.915-1.85c-.276-.418-.469-.923-.575-1.5l-.213-1.158a1.516 1.516 0 0 1 .892-1.671A10 10 0 0 0 11.64.26c.26-.174.556-.261.852-.261zm0 1.251a.3.3 0 0 0-.158.05 11.3 11.3 0 0 1-1.939 1.038c-.1.042-.163.17-.141.289l.213 1.16c.076.412.207.762.39 1.04a4.8 4.8 0 0 0 1.512 1.463q.06.035.128.036z" clip-rule="evenodd" />
        <path d="M8.082 4.5q.19.831.585 1.5H6a.75.75 0 0 1 0-1.5z" />
    </g>
</svg>
